mentis/img/news-2.svg

<?xml version="1.0" encoding="UTF-8"?>
<svg width="30.5px" height="30.5px" viewBox="0 0 30.5 30.5" version="1.1" xmlns="http://www.w3.org/2000/svg" xmlns:xlink="http://www.w3.org/1999/xlink">
    <title>CD35D98F-68EE-42FF-8430-80FF24BC35EF</title>
    <g id="Page-1" stroke="none" stroke-width="1" fill="none" fill-rule="evenodd">
        <g id="Index" transform="translate(-682, -1786)" stroke="#0074FF" stroke-width="2">
            <g id="Group-21-Copy" transform="translate(682, 1786)">
                <path d="M6,24 L0,24 L0,27 C0,28.657 1.343,30 3,30 C4.657,30 6,28.657 6,27 L6,3 C6,1.343 4.657,0 3,0 C1.343,0 0,1.343 0,3 L0,6 L6,6" id="Stroke-1"></path>
                <line x1="12" y1="30" x2="3" y2="30" id="Stroke-3"></line>
                <path d="M30,15 L30,27 C30,28.657 28.657,30 27,30 L24,30" id="Stroke-5"></path>
                <path d="M3,0 L27,0 C28.657,0 30,1.343 30,3 L30,5" id="Stroke-7"></path>
                <polyline id="Stroke-9" points="15 22 15 29 18 27 21 29 21 22"></polyline>
                <path d="M23,18 C23,20.761 20.761,23 18,23 C15.239,23 13,20.761 13,18 C13,15.239 15.239,13 18,13 C20.761,13 23,15.239 23,18 Z" id="Stroke-11"></path>
                <line x1="14" y1="4" x2="22" y2="4" id="Stroke-13"></line>
                <line x1="11" y1="8" x2="25" y2="8" id="Stroke-15"></line>
                <line x1="30" y1="7" x2="30" y2="9" id="Stroke-17"></line>
                <line x1="30" y1="11" x2="30" y2="13" id="Stroke-19"></line>
            </g>
        </g>
    </g>
</svg>

<svg width="30.5" height="30.5" xmlns="http://www.w3.org/2000/svg"><g stroke="#0074FF" stroke-width="2" fill="none" fill-rule="evenodd"><path d="M6 24H0v3a3 3 0 106 0V3a3 3 0 10-6 0v3h6m6 24H3m27-15v12a3 3 0 01-3 3h-3"/><path d="M3 0h24a3 3 0 013 3v2M15 22v7l3-2 3 2v-7"/><path d="M23 18a5 5 0 11-10.001-.001A5 5 0 0123 18zM14 4h8M11 8h14m5-1v2m0 2v2"/></g></svg>
